!!!OTL: An saol meallta, S. 107
!!!id: I0547
**kern
*clefG2
*k[]
*G:
{16g
16a
=1
16b
16b
8g
8e
4d
16e
16g
=2
4a
8a
8a
8b}
=3
{8g
=4
8cc
8cc
8cc
8b
8dd
8b
=5
4a
8g
8g
8b
8g
=6
4.e
4d}
=7
{8d
=8
8e
8g
8g
4g}
=9
{16g
16a
=10
8b
8g
8e
8d
8d
16e
16g
=11
4a
8a
8a
8b}
=12
{16g
16g
=13
4cc
8cc
8b
8dd
8b
=14
4a
8g
8g
8b
8g}
=15
{4.e
4d
8d
=16
8e
8g
8g
4g}
=17
{16g
16a
=18
8b
8g
8b
4dd
8dd
=19
4ee
8ee
8dd
8b
8g}
=20
{8cc
8cc
8cc
8b
8dd
8b
=21
4a
8g
8g
8b
16g}
=22
{16g
=23
8cc
8cc
8cc
8b
8dd
8b
=24
4a
8g
8g
8b}
=25
{8g
=26
8cc
8cc
8cc
8b
8dd
8b
=27
4a
8g
8g
8b
8g}
=28
{4.e
4d
8d
=29
8e
8g
8g
4g}
==
*-
!!!minrhy: 16
!!!meters: 6/8 ]  ZZ[11
!!!cut: An saol meallta, S. 107
!!!reg: Irland
!!!trd: O'SULLIVAN, Donal: Song of the Irish
!!!rhy1: XX  XXX_X_X__XX  X__X_X_X_
!!!rhy2: X_  X_X_X_X_X_X_  X__X_X_X_X_  X__.X__
!!!key: I0547  16  G 6/8 ]  ZZ[11
!!!mod: SECHSTONSKALA DUR ?]  AMBITUS[9
!!!kad: 3-5131111311
!!!akz: 3-522_4321-6-5_-61_3-522_4321_-6-5-61_3565_4321_4321_4321_-6-5-61_
!!!fot: 'a__b__c__av_bv_d__e__bv_bv_bv_d__
!!!for: 'a__b__bw_bw_c__d__bw_bw_bw_bw_d__
!!!fok: '~a_^d_/__~a_^__/__^__\__~a_^__/__
!! PHRAS[VORWIEGEND AUFTAKTIG]
!!!fkt: religiöses Lied
!! IRISCHE V
!! PR[35] 2K[11] 2G[22] 3K[0] 3G[0] 4A[8] 4Ü[0] 5A[0] 6K[0] 6G[0]
!! 7K[0] 7G[0] 8A[0] MEHR[0] SI[41] ABS[37] SR[32] SP[8]
!! ST[16] 2k[0] 2g[5] 3k[5] 3g[0] 4d[14] 4ü[0] 5d[0] 6k[0] 6g[0]
!! 7k[0] 7g[0] 8d[0] mehr[0] si[24] dm[+17] sr[5] sp[19]
!! 1F[39] 2F[55] 3F[3] 4F[0] LF[0] 2P[3] 3P[0] 4P[0] TRI[0] DF[4] AB[38]
!! TF[0] U3K[0] U3[0] U4[0] U4Ü[0] U5[0] U6K[0] U6[0] U7K[0] U7[0]
!! N1[0] N2K[0] N2[0] N3K[0] N3[11] N4[11] N4Ü[0] N5[37] N6K[0] N6[11]
!!!n7k: 0] N7[0] O1[32] O2K[0] O2[0] O3K[0] O3[0] HÖ[0
